assets/img/tech.svg

<svg xmlns="http://www.w3.org/2000/svg" width="151" height="151" viewBox="0 0 151 151">
  <defs>
    <linearGradient id="tech-a" x1="0%" y1="0%" y2="95.386%">
      <stop offset="0%" stop-color="#072142"/>
      <stop offset="52.417%" stop-color="#8C2B7A"/>
      <stop offset="100%" stop-color="#FF4D5A"/>
    </linearGradient>
  </defs>
  <path fill="url(#tech-a)" fill-rule="evenodd" d="M140.933333,55.3666667 L140.933333,65.4333333 L148.483333,65.4333333 C149.87505,65.4333333 151,66.5608 151,67.95 C151,69.3392 149.87505,70.4666667 148.483333,70.4666667 L140.933333,70.4666667 L140.933333,80.5333333 L148.483333,80.5333333 C149.87505,80.5333333 151,81.6608 151,83.05 C151,84.4392 149.87505,85.5666667 148.483333,85.5666667 L140.933333,85.5666667 L140.933333,95.6333333 L148.483333,95.6333333 C149.87505,95.6333333 151,96.7608 151,98.15 C151,99.5392 149.87505,100.666667 148.483333,100.666667 L140.933333,100.666667 L140.933333,110.733333 L148.483333,110.733333 C149.87505,110.733333 151,111.8608 151,113.25 C151,114.6392 149.87505,115.766667 148.483333,115.766667 L140.933333,115.766667 L140.933333,128.35 C140.933333,134.817833 134.817833,140.933333 128.35,140.933333 L115.766667,140.933333 L115.766667,148.483333 C115.766667,149.872533 114.641717,151 113.25,151 C111.858283,151 110.733333,149.872533 110.733333,148.483333 L110.733333,140.933333 L100.666667,140.933333 L100.666667,148.483333 C100.666667,149.872533 99.5417167,151 98.15,151 C96.7582833,151 95.6333333,149.872533 95.6333333,148.483333 L95.6333333,140.933333 L85.5666667,140.933333 L85.5666667,148.483333 C85.5666667,149.872533 84.4417167,151 83.05,151 C81.6582833,151 80.5333333,149.872533 80.5333333,148.483333 L80.5333333,140.933333 L70.4666667,140.933333 L70.4666667,148.483333 C70.4666667,149.872533 69.3417167,151 67.95,151 C66.5582833,151 65.4333333,149.872533 65.4333333,148.483333 L65.4333333,140.933333 L55.3666667,140.933333 L55.3666667,148.483333 C55.3666667,149.872533 54.2417167,151 52.85,151 C51.4582833,151 50.3333333,149.872533 50.3333333,148.483333 L50.3333333,140.933333 L40.2666667,140.933333 L40.2666667,148.483333 C40.2666667,149.872533 39.1417167,151 37.75,151 C36.3582833,151 35.2333333,149.872533 35.2333333,148.483333 L35.2333333,140.933333 L22.65,140.933333 C16.1821667,140.933333 10.0666667,134.817833 10.0666667,128.35 C10.0666667,126.9608 11.1916167,125.833333 12.5833333,125.833333 C13.97505,125.833333 15.1,126.9608 15.1,128.35 C15.1,132.0193 18.9807,135.9 22.65,135.9 L128.35,135.9 C132.0193,135.9 135.9,132.0193 135.9,128.35 L135.9,22.65 C135.9,18.9807 132.0193,15.1 128.35,15.1 L22.65,15.1 C18.9807,15.1 15.1,18.9807 15.1,22.65 L15.1,118.283333 C15.1,119.672533 13.97505,120.8 12.5833333,120.8 C11.1916167,120.8 10.0666667,119.672533 10.0666667,118.283333 L10.0666667,115.766667 L2.51666667,115.766667 C1.12495,115.766667 0,114.6392 0,113.25 C0,111.8608 1.12495,110.733333 2.51666667,110.733333 L10.0666667,110.733333 L10.0666667,100.666667 L2.51666667,100.666667 C1.12495,100.666667 0,99.5392 0,98.15 C0,96.7608 1.12495,95.6333333 2.51666667,95.6333333 L10.0666667,95.6333333 L10.0666667,85.5666667 L2.51666667,85.5666667 C1.12495,85.5666667 0,84.4392 0,83.05 C0,81.6608 1.12495,80.5333333 2.51666667,80.5333333 L10.0666667,80.5333333 L10.0666667,70.4666667 L2.51666667,70.4666667 C1.12495,70.4666667 0,69.3392 0,67.95 C0,66.5608 1.12495,65.4333333 2.51666667,65.4333333 L10.0666667,65.4333333 L10.0666667,55.3666667 L2.51666667,55.3666667 C1.12495,55.3666667 0,54.2392 0,52.85 C0,51.4608 1.12495,50.3333333 2.51666667,50.3333333 L10.0666667,50.3333333 L10.0666667,40.2666667 L2.51666667,40.2666667 C1.12495,40.2666667 0,39.1392 0,37.75 C0,36.3608 1.12495,35.2333333 2.51666667,35.2333333 L10.0666667,35.2333333 L10.0666667,22.65 C10.0666667,16.1821667 16.1821667,10.0666667 22.65,10.0666667 L35.2333333,10.0666667 L35.2333333,2.51666667 C35.2333333,1.12746667 36.3582833,0 37.75,0 C39.1417167,0 40.2666667,1.12746667 40.2666667,2.51666667 L40.2666667,10.0666667 L50.3333333,10.0666667 L50.3333333,2.51666667 C50.3333333,1.12746667 51.4582833,0 52.85,0 C54.2417167,0 55.3666667,1.12746667 55.3666667,2.51666667 L55.3666667,10.0666667 L65.4333333,10.0666667 L65.4333333,2.51666667 C65.4333333,1.12746667 66.5582833,0 67.95,0 C69.3417167,0 70.4666667,1.12746667 70.4666667,2.51666667 L70.4666667,10.0666667 L80.5333333,10.0666667 L80.5333333,2.51666667 C80.5333333,1.12746667 81.6582833,0 83.05,0 C84.4417167,0 85.5666667,1.12746667 85.5666667,2.51666667 L85.5666667,10.0666667 L95.6333333,10.0666667 L95.6333333,2.51666667 C95.6333333,1.12746667 96.7582833,0 98.15,0 C99.5417167,0 100.666667,1.12746667 100.666667,2.51666667 L100.666667,10.0666667 L110.733333,10.0666667 L110.733333,2.51666667 C110.733333,1.12746667 111.858283,0 113.25,0 C114.641717,0 115.766667,1.12746667 115.766667,2.51666667 L115.766667,10.0666667 L128.35,10.0666667 C134.817833,10.0666667 140.933333,16.1821667 140.933333,22.65 L140.933333,35.2333333 L148.483333,35.2333333 C149.87505,35.2333333 151,36.3608 151,37.75 C151,39.1392 149.87505,40.2666667 148.483333,40.2666667 L140.933333,40.2666667 L140.933333,50.3333333 L148.483333,50.3333333 C149.87505,50.3333333 151,51.4608 151,52.85 C151,54.2392 149.87505,55.3666667 148.483333,55.3666667 L140.933333,55.3666667 L140.933333,55.3666667 Z M45.3,72.9833333 C45.3,71.85335 43.9108,70.4666667 42.7833333,70.4666667 C38.9026333,70.4666667 35.2333333,66.7973667 35.2333333,62.9166667 L35.2333333,42.7833333 C35.2333333,38.9026333 38.9026333,35.2333333 42.7833333,35.2333333 L108.216667,35.2333333 C112.097367,35.2333333 115.766667,38.9026333 115.766667,42.7833333 L115.766667,83.05 C115.766667,86.9307 112.097367,90.6 108.216667,90.6 L100.201083,90.6 C99.1591833,93.5243667 96.3933667,95.6333333 93.1166667,95.6333333 C89.8399667,95.6333333 87.07415,93.5243667 86.03225,90.6 L67.95,90.6 C64.0693,90.6 60.4,86.9307 60.4,83.05 L60.4,75.0344167 C57.47815,73.9925167 55.3666667,71.2267 55.3666667,67.95 C55.3666667,63.7874333 58.7541,60.4 62.9166667,60.4 C67.0792333,60.4 70.4666667,63.7874333 70.4666667,67.95 C70.4666667,71.2267 68.3551833,73.9925167 65.4333333,75.0369333 L65.4333333,83.05 C65.4333333,84.1799833 66.8225333,85.5666667 67.95,85.5666667 L86.03225,85.5666667 C86.7897667,83.43505 88.4658667,81.7564333 90.6,80.9964 L90.6,64.96775 C87.67815,63.92585 85.5666667,61.1600333 85.5666667,57.8833333 C85.5666667,53.7207667 88.9541,50.3333333 93.1166667,50.3333333 C97.2792333,50.3333333 100.666667,53.7207667 100.666667,57.8833333 C100.666667,61.1600333 98.5551833,63.92585 95.6333333,64.9702667 L95.6333333,80.9964 C97.7674667,81.7564333 99.4435667,83.43505 100.201083,85.5666667 L108.216667,85.5666667 C109.344133,85.5666667 110.733333,84.1799833 110.733333,83.05 L110.733333,42.7833333 C110.733333,41.65335 109.344133,40.2666667 108.216667,40.2666667 L42.7833333,40.2666667 C41.6558667,40.2666667 40.2666667,41.65335 40.2666667,42.7833333 L40.2666667,62.9166667 C40.2666667,64.04665 41.6558667,65.4333333 42.7833333,65.4333333 C46.6640333,65.4333333 50.3333333,69.1026333 50.3333333,72.9833333 C50.3333333,76.8640333 46.6640333,80.5333333 42.7833333,80.5333333 C41.6558667,80.5333333 40.2666667,81.9200167 40.2666667,83.05 L40.2666667,108.216667 C40.2666667,109.34665 41.6558667,110.733333 42.7833333,110.733333 L47.8166667,110.733333 C48.9441333,110.733333 50.3333333,109.34665 50.3333333,108.216667 C50.3333333,104.335967 54.0001167,100.666667 57.8808167,100.666667 L67.95,100.666667 C71.8307,100.666667 75.5,104.335967 75.5,108.216667 C75.5,109.34665 76.8892,110.733333 78.0166667,110.733333 L101.13225,110.733333 C102.17415,107.808967 104.939967,105.7 108.216667,105.7 C112.379233,105.7 115.766667,109.087433 115.766667,113.25 C115.766667,117.412567 112.379233,120.8 108.216667,120.8 C104.939967,120.8 102.17415,118.691033 101.13225,115.766667 L78.0166667,115.766667 C74.1359667,115.766667 70.4666667,112.097367 70.4666667,108.216667 C70.4666667,107.086683 69.0774667,105.7 67.95,105.7 L57.8808167,105.7 C56.75335,105.7 55.3666667,107.086683 55.3666667,108.216667 C55.3666667,112.097367 51.6973667,115.766667 47.8166667,115.766667 L42.7833333,115.766667 C38.9026333,115.766667 35.2333333,112.097367 35.2333333,108.216667 L35.2333333,83.05 C35.2333333,79.1693 38.9026333,75.5 42.7833333,75.5 C43.9108,75.5 45.3,74.1133167 45.3,72.9833333 L45.3,72.9833333 Z M105.7,113.25 C105.7,114.636683 106.827467,115.766667 108.216667,115.766667 C109.605867,115.766667 110.733333,114.636683 110.733333,113.25 C110.733333,111.863317 109.605867,110.733333 108.216667,110.733333 C106.827467,110.733333 105.7,111.863317 105.7,113.25 L105.7,113.25 Z M60.4,67.95 C60.4,69.3366833 61.5274667,70.4666667 62.9166667,70.4666667 C64.3058667,70.4666667 65.4333333,69.3366833 65.4333333,67.95 C65.4333333,66.5633167 64.3058667,65.4333333 62.9166667,65.4333333 C61.5274667,65.4333333 60.4,66.5633167 60.4,67.95 L60.4,67.95 Z M90.6,57.8833333 C90.6,59.2700167 91.7274667,60.4 93.1166667,60.4 C94.5058667,60.4 95.6333333,59.2700167 95.6333333,57.8833333 C95.6333333,56.49665 94.5058667,55.3666667 93.1166667,55.3666667 C91.7274667,55.3666667 90.6,56.49665 90.6,57.8833333 L90.6,57.8833333 Z M95.6333333,88.0833333 C95.6333333,86.69665 94.5058667,85.5666667 93.1166667,85.5666667 C91.7274667,85.5666667 90.6,86.69665 90.6,88.0833333 C90.6,89.4700167 91.7274667,90.6 93.1166667,90.6 C94.5058667,90.6 95.6333333,89.4700167 95.6333333,88.0833333 L95.6333333,88.0833333 Z M123.392167,125.833333 C124.781367,125.833333 125.908833,124.705867 125.908833,123.316667 C125.908833,121.927467 124.781367,120.8 123.392167,120.8 L123.364483,120.8 C121.9778,120.8 120.862917,121.927467 120.862917,123.316667 C120.862917,124.705867 122.00045,125.833333 123.392167,125.833333 L123.392167,125.833333 Z M27.7588333,125.833333 C29.1480333,125.833333 30.2755,124.705867 30.2755,123.316667 C30.2755,121.927467 29.1480333,120.8 27.7588333,120.8 L27.73115,120.8 C26.3444667,120.8 25.2295833,121.927467 25.2295833,123.316667 C25.2295833,124.705867 26.3696333,125.833333 27.7588333,125.833333 L27.7588333,125.833333 Z M123.392167,30.2 C124.781367,30.2 125.908833,29.0725333 125.908833,27.6833333 C125.908833,26.2941333 124.781367,25.1666667 123.392167,25.1666667 L123.364483,25.1666667 C121.9778,25.1666667 120.862917,26.2941333 120.862917,27.6833333 C120.862917,29.0725333 122.00045,30.2 123.392167,30.2 L123.392167,30.2 Z M27.7588333,30.2 C29.1480333,30.2 30.2755,29.0725333 30.2755,27.6833333 C30.2755,26.2941333 29.1480333,25.1666667 27.7588333,25.1666667 L27.73115,25.1666667 C26.3444667,25.1666667 25.2295833,26.2941333 25.2295833,27.6833333 C25.2295833,29.0725333 26.3696333,30.2 27.7588333,30.2 L27.7588333,30.2 Z"/>
</svg>

<svg xmlns="http://www.w3.org/2000/svg" width="151" height="151" xmlns:v="https://vecta.io/nano"><defs><linearGradient id="A" x1="0%" y1="0%" y2="95.386%"><stop offset="0%" stop-color="#072142"/><stop offset="52.417%" stop-color="#8c2b7a"/><stop offset="100%" stop-color="#ff4d5a"/></linearGradient></defs><path fill="url(#A)" fill-rule="evenodd" d="M140.933 55.367v10.067h7.55c1.392 0 2.517 1.127 2.517 2.517s-1.125 2.517-2.517 2.517h-7.55v10.067h7.55c1.392 0 2.517 1.127 2.517 2.517s-1.125 2.517-2.517 2.517h-7.55v10.067h7.55c1.392 0 2.517 1.127 2.517 2.517s-1.125 2.517-2.517 2.517h-7.55v10.067h7.55c1.392 0 2.517 1.127 2.517 2.517s-1.125 2.517-2.517 2.517h-7.55v12.583c0 6.468-6.115 12.583-12.583 12.583h-12.583v7.55c0 1.39-1.125 2.517-2.517 2.517s-2.517-1.127-2.517-2.517v-7.55h-10.067v7.55c0 1.39-1.125 2.517-2.517 2.517s-2.517-1.127-2.517-2.517v-7.55H85.567v7.55c0 1.39-1.125 2.517-2.517 2.517s-2.517-1.127-2.517-2.517v-7.55H70.467v7.55c0 1.39-1.125 2.517-2.517 2.517s-2.517-1.127-2.517-2.517v-7.55H55.367v7.55c0 1.39-1.125 2.517-2.517 2.517s-2.517-1.127-2.517-2.517v-7.55H40.267v7.55c0 1.39-1.125 2.517-2.517 2.517s-2.517-1.127-2.517-2.517v-7.55H22.65c-6.468 0-12.583-6.115-12.583-12.583 0-1.39 1.125-2.517 2.517-2.517s2.517 1.127 2.517 2.517c0 3.67 3.88 7.55 7.55 7.55h105.7c3.67 0 7.55-3.88 7.55-7.55V22.65c0-3.67-3.88-7.55-7.55-7.55H22.65c-3.67 0-7.55 3.88-7.55 7.55v95.633c0 1.39-1.125 2.517-2.517 2.517s-2.517-1.127-2.517-2.517v-2.517h-7.55C1.125 115.767 0 114.64 0 113.25s1.125-2.517 2.517-2.517h7.55v-10.067h-7.55C1.125 100.667 0 99.54 0 98.15s1.125-2.517 2.517-2.517h7.55V85.567h-7.55C1.125 85.567 0 84.44 0 83.05s1.125-2.517 2.517-2.517h7.55V70.467h-7.55C1.125 70.467 0 69.34 0 67.95s1.125-2.517 2.517-2.517h7.55V55.367h-7.55C1.125 55.367 0 54.24 0 52.85s1.125-2.517 2.517-2.517h7.55V40.267h-7.55C1.125 40.267 0 39.14 0 37.75s1.125-2.517 2.517-2.517h7.55V22.65c0-6.468 6.115-12.583 12.583-12.583h12.583v-7.55C35.233 1.127 36.358 0 37.75 0s2.517 1.127 2.517 2.517v7.55h10.067v-7.55C50.333 1.127 51.458 0 52.85 0s2.517 1.127 2.517 2.517v7.55h10.067v-7.55C65.433 1.127 66.558 0 67.95 0s2.517 1.127 2.517 2.517v7.55h10.067v-7.55C80.533 1.127 81.658 0 83.05 0s2.517 1.127 2.517 2.517v7.55h10.067v-7.55C95.633 1.127 96.758 0 98.15 0s2.517 1.127 2.517 2.517v7.55h10.067v-7.55c0-1.39 1.125-2.517 2.517-2.517s2.517 1.127 2.517 2.517v7.55h12.583c6.468 0 12.583 6.115 12.583 12.583v12.583h7.55c1.392 0 2.517 1.127 2.517 2.517s-1.125 2.517-2.517 2.517h-7.55v10.067h7.55c1.392 0 2.517 1.127 2.517 2.517s-1.125 2.517-2.517 2.517h-7.55zM45.3 72.983c0-1.13-1.39-2.517-2.517-2.517-3.88 0-7.55-3.67-7.55-7.55V42.783c0-3.88 3.67-7.55 7.55-7.55h65.433c3.88 0 7.55 3.67 7.55 7.55V83.05c0 3.88-3.67 7.55-7.55 7.55H100.2c-1.042 2.924-3.808 5.033-7.084 5.033s-6.043-2.11-7.084-5.033H67.95c-3.88 0-7.55-3.67-7.55-7.55v-8.016c-2.922-1.042-5.033-3.808-5.033-7.084a7.56 7.56 0 0 1 7.55-7.55 7.56 7.56 0 0 1 7.55 7.55c0 3.277-2.11 6.043-5.033 7.087v8.013c0 1.13 1.39 2.517 2.517 2.517h18.082c.758-2.132 2.434-3.8 4.568-4.57v-16.03c-2.922-1.042-5.033-3.808-5.033-7.084a7.56 7.56 0 0 1 7.55-7.55 7.56 7.56 0 0 1 7.55 7.55c0 3.277-2.11 6.043-5.033 7.087v16.026c2.134.76 3.8 2.44 4.568 4.57h8.016c1.127 0 2.517-1.387 2.517-2.517V42.783c0-1.13-1.39-2.517-2.517-2.517H42.783c-1.127 0-2.517 1.387-2.517 2.517v20.133c0 1.13 1.39 2.517 2.517 2.517 3.88 0 7.55 3.67 7.55 7.55s-3.67 7.55-7.55 7.55c-1.127 0-2.517 1.387-2.517 2.517v25.167c0 1.13 1.39 2.517 2.517 2.517h5.033c1.127 0 2.517-1.387 2.517-2.517 0-3.88 3.667-7.55 7.547-7.55h10.07c3.88 0 7.55 3.67 7.55 7.55 0 1.13 1.39 2.517 2.517 2.517h23.116c1.042-2.924 3.808-5.033 7.084-5.033a7.56 7.56 0 0 1 7.55 7.55 7.56 7.56 0 0 1-7.55 7.55c-3.277 0-6.043-2.11-7.084-5.033H78.017c-3.88 0-7.55-3.67-7.55-7.55 0-1.13-1.39-2.517-2.517-2.517H57.88c-1.127 0-2.514 1.387-2.514 2.517 0 3.88-3.67 7.55-7.55 7.55h-5.033c-3.88 0-7.55-3.67-7.55-7.55V83.05c0-3.88 3.67-7.55 7.55-7.55 1.127 0 2.517-1.387 2.517-2.517h0zm60.4 40.267a2.52 2.52 0 0 0 2.517 2.517 2.52 2.52 0 0 0 2.517-2.517 2.52 2.52 0 0 0-2.517-2.517 2.52 2.52 0 0 0-2.517 2.517h0zm-45.3-45.3a2.52 2.52 0 0 0 2.517 2.517 2.52 2.52 0 0 0 2.517-2.517 2.52 2.52 0 0 0-2.517-2.517A2.52 2.52 0 0 0 60.4 67.95h0zm30.2-10.067a2.52 2.52 0 0 0 2.517 2.517 2.52 2.52 0 0 0 2.517-2.517 2.52 2.52 0 0 0-2.517-2.517 2.52 2.52 0 0 0-2.517 2.517h0zm5.033 30.2a2.52 2.52 0 0 0-2.517-2.517 2.52 2.52 0 0 0-2.517 2.517 2.52 2.52 0 0 0 2.517 2.517 2.52 2.52 0 0 0 2.517-2.517h0zm27.76 37.75a2.52 2.52 0 0 0 2.517-2.517 2.52 2.52 0 0 0-2.517-2.517h-.028c-1.387 0-2.502 1.127-2.502 2.517s1.138 2.517 2.53 2.517h0zm-95.633 0a2.52 2.52 0 0 0 2.517-2.517 2.52 2.52 0 0 0-2.517-2.517h-.028c-1.387 0-2.502 1.127-2.502 2.517a2.53 2.53 0 0 0 2.529 2.517h0zM123.392 30.2a2.52 2.52 0 0 0 2.517-2.517 2.52 2.52 0 0 0-2.517-2.517h-.028c-1.387 0-2.502 1.127-2.502 2.517S122 30.2 123.392 30.2h0zm-95.633 0a2.52 2.52 0 0 0 2.517-2.517 2.52 2.52 0 0 0-2.517-2.517h-.028c-1.387 0-2.502 1.127-2.502 2.517a2.53 2.53 0 0 0 2.529 2.517h0z"/></svg>
